packages/icons/src/emoji/svg/train.svg

<svg width="120" height="120" viewBox="0 0 120 120" fill="none" xmlns="http://www.w3.org/2000/svg">
<path d="M113.409 41.3346C107.841 37.5002 102.169 33.8252 96.4407 30.2346C87.5438 24.6752 78.2813 18.6846 67.8282 16.6502C61.4063 15.394 53.2501 15.469 47.0251 17.8034C42.9001 19.3502 39.0282 21.8346 36.1032 25.1534C30.8813 31.0971 27.6938 37.9784 25.0501 45.3752C21.3563 55.7065 12.3095 59.4471 6.90008 68.6534C4.49071 72.7784 3.28133 79.9971 3.69383 84.7971C5.54071 105.994 37.4438 106.538 51.3376 104.166C58.5001 102.947 66.0095 99.319 69.4595 97.1065C77.2595 92.0909 83.147 85.1534 83.147 85.1534L116.381 52.4346V45.9659C116.381 42.4877 113.409 41.3346 113.409 41.3346Z" fill="#E0E0E0"/>
<mask id="mask0_212_247" style="mask-type:luminance" maskUnits="userSpaceOnUse" x="3" y="15" width="114" height="91">
<path d="M113.409 41.3346C107.841 37.5002 102.169 33.8252 96.4407 30.2346C87.5438 24.6752 78.2813 18.6846 67.8282 16.6502C61.4063 15.394 53.2501 15.469 47.0251 17.8034C42.9001 19.3502 39.0282 21.8346 36.1032 25.1534C30.8813 31.0971 27.6938 37.9784 25.0501 45.3752C21.3563 55.7065 12.3095 59.4471 6.90008 68.6534C4.49071 72.7784 3.28133 79.9971 3.69383 84.7971C5.54071 105.994 37.4438 106.538 51.3376 104.166C58.5001 102.947 66.0095 99.319 69.4595 97.1065C77.2595 92.0909 83.147 85.1534 83.147 85.1534L116.381 52.4346V45.9659C116.381 42.4877 113.409 41.3346 113.409 41.3346Z" fill="white"/>
</mask>
<g mask="url(#mask0_212_247)">
<path d="M92.9998 51.3003C92.9998 53.6253 91.7998 55.8847 90.1873 56.3816L88.2373 56.9722C86.1467 57.6097 84.2061 55.6503 84.2061 52.5285V40.3691C84.2061 37.2472 86.1467 35.4285 88.2373 36.2066L90.1873 36.9378C91.7998 37.5472 92.9998 39.9003 92.9998 42.2253V51.3003ZM102 43.7816C102 42.1222 101.259 40.5285 100.265 40.2378L99.1123 39.8816C97.9404 39.5347 96.8904 40.8847 96.8904 42.9191V50.8597C96.8904 52.8941 97.9311 54.291 99.1123 54.0003L100.265 53.7191C101.25 53.4753 102 51.9378 102 50.2691V43.7816ZM107.39 44.4847C107.39 43.266 106.922 42.141 106.294 41.9722L105.562 41.7847C104.812 41.5878 104.128 42.6472 104.128 44.1472V50.0347C104.128 51.5441 104.803 52.5097 105.562 52.2191L106.294 51.9285C106.922 51.6753 107.39 50.4941 107.39 49.266V44.4847ZM110.569 44.8222C110.569 43.8753 110.287 43.0316 109.931 42.9285L109.519 42.816C109.097 42.7035 108.731 43.5191 108.731 44.616V48.9285C108.731 50.0347 109.097 50.7941 109.519 50.6253L109.931 50.4566C110.287 50.316 110.569 49.4253 110.569 48.4878V44.8222ZM112.575 45.0285C112.575 44.2597 112.397 43.5847 112.153 43.5191L111.881 43.4441C111.619 43.3785 111.394 44.0253 111.394 44.9066V48.3003C111.394 49.1722 111.619 49.8003 111.881 49.6972L112.153 49.5847C112.387 49.491 112.575 48.7878 112.575 48.0191V45.0285ZM114.262 45.216C114.262 44.6066 114.14 44.0722 113.962 44.0253L113.775 43.9691C113.587 43.9128 113.428 44.4285 113.428 45.1222V47.8128C113.428 48.4972 113.587 48.9941 113.775 48.9097L113.962 48.8253C114.14 48.7503 114.262 48.1972 114.262 47.5878V45.216Z" fill="#40C0E7"/>
</g>
<mask id="mask1_212_247" style="mask-type:luminance" maskUnits="userSpaceOnUse" x="3" y="15" width="114" height="91">
<path d="M113.409 41.3346C107.841 37.5002 102.169 33.8252 96.4407 30.2346C87.5438 24.6752 78.2813 18.6846 67.8282 16.6502C61.4063 15.394 53.2501 15.469 47.0251 17.8034C42.9001 19.3502 39.0282 21.8346 36.1032 25.1534C30.8813 31.0971 27.6938 37.9784 25.0501 45.3752C21.3563 55.7065 12.3095 59.4471 6.90008 68.6534C4.49071 72.7784 3.28133 79.9971 3.69383 84.7971C5.54071 105.994 37.4438 106.538 51.3376 104.166C58.5001 102.947 66.0095 99.319 69.4595 97.1065C77.2595 92.0909 83.147 85.1534 83.147 85.1534L116.381 52.4346V45.9659C116.381 42.4877 113.409 41.3346 113.409 41.3346Z" fill="white"/>
</mask>
<g mask="url(#mask1_212_247)">
<path d="M4.26573 83.8595C4.26573 83.8595 7.78135 91.2564 19.0595 94.397C30.3376 97.5377 46.6032 98.6439 56.222 93.8439C65.8314 89.0345 84.6938 75.1689 84.6938 75.1689L116.681 50.2126V53.5408L76.922 92.7283C76.922 92.7283 64.7251 105.488 50.297 105.488C35.8782 105.488 22.9126 106.285 15.1689 101.972C0.571977 93.8345 4.26573 83.8595 4.26573 83.8595Z" fill="#78A3AD"/>
</g>
<mask id="mask2_212_247" style="mask-type:luminance" maskUnits="userSpaceOnUse" x="3" y="15" width="114" height="91">
<path d="M113.409 41.3346C107.841 37.5002 102.169 33.8252 96.4407 30.2346C87.5438 24.6752 78.2813 18.6846 67.8282 16.6502C61.4063 15.394 53.2501 15.469 47.0251 17.8034C42.9001 19.3502 39.0282 21.8346 36.1032 25.1534C30.8813 31.0971 27.6938 37.9784 25.0501 45.3752C21.3563 55.7065 12.3095 59.4471 6.90008 68.6534C4.49071 72.7784 3.28133 79.9971 3.69383 84.7971C5.54071 105.994 37.4438 106.538 51.3376 104.166C58.5001 102.947 66.0095 99.319 69.4595 97.1065C77.2595 92.0909 83.147 85.1534 83.147 85.1534L116.381 52.4346V45.9659C116.381 42.4877 113.409 41.3346 113.409 41.3346Z" fill="white"/>
</mask>
<g mask="url(#mask2_212_247)">
<path d="M118.81 48.7033C118.575 48.5908 118.125 48.5721 117.816 48.6471C117.816 48.6471 117.713 48.7127 117.535 48.8439C117.432 48.8533 117.329 48.8439 117.244 48.8627C117.038 48.9189 96.0567 64.4533 76.9786 79.6502C58.5098 94.3595 41.1286 98.5033 20.6161 93.0939C6.71294 89.4377 4.21919 82.3783 3.88169 78.8439C3.90044 78.7033 3.91919 78.5908 3.91919 78.5533C3.94732 78.4127 3.89107 78.2908 3.84419 78.1689C3.82544 77.3533 3.90982 76.8189 3.91919 76.7252C3.93683 76.634 3.93624 76.5403 3.91747 76.4494C3.8987 76.3585 3.86211 76.2722 3.80981 76.1955C3.75752 76.1188 3.69056 76.0532 3.61278 76.0025C3.53501 75.9518 3.44797 75.917 3.35669 75.9002C2.97232 75.8252 2.60669 76.0689 2.53169 76.4627C2.52232 76.4908 2.37232 77.3345 2.48482 78.647C2.27857 80.6721 2.08169 91.5283 20.2504 96.3189C41.2411 101.86 59.1567 97.8189 77.8598 82.6127C97.9129 66.3189 118.454 49.1064 118.669 49.0502C118.988 48.9658 119.054 48.8064 118.81 48.7033Z" fill="#BDBDBD"/>
</g>
<mask id="mask3_212_247" style="mask-type:luminance" maskUnits="userSpaceOnUse" x="3" y="15" width="114" height="91">
<path d="M113.409 41.3346C107.841 37.5002 102.169 33.8252 96.4407 30.2346C87.5438 24.6752 78.2813 18.6846 67.8282 16.6502C61.4063 15.394 53.2501 15.469 47.0251 17.8034C42.9001 19.3502 39.0282 21.8346 36.1032 25.1534C30.8813 31.0971 27.6938 37.9784 25.0501 45.3752C21.3563 55.7065 12.3095 59.4471 6.90008 68.6534C4.49071 72.7784 3.28133 79.9971 3.69383 84.7971C5.54071 105.994 37.4438 106.538 51.3376 104.166C58.5001 102.947 66.0095 99.319 69.4595 97.1065C77.2595 92.0909 83.147 85.1534 83.147 85.1534L116.381 52.4346V45.9659C116.381 42.4877 113.409 41.3346 113.409 41.3346Z" fill="white"/>
</mask>
<g mask="url(#mask3_212_247)">
<path d="M115.829 48.3003C115.829 48.3003 104.747 53.5315 96.066 56.8597C87.9004 59.9815 82.8473 61.3878 82.8473 61.3878L81.1035 72.3753L115.829 49.3878V48.3003Z" fill="#006CA2"/>
</g>
<path d="M39.5067 35.9624C40.4723 37.8468 43.6879 37.7812 45.4317 37.8655C48.4317 38.0249 51.3567 38.0624 54.3098 37.9312C56.9161 37.828 58.9411 37.7155 61.1161 36.1218C62.6254 35.0155 64.0317 33.9749 65.6161 33.1968C67.8286 32.1187 69.7504 33.1968 70.4911 35.9624C70.8942 37.4905 70.9317 39.2905 70.6411 40.8937C69.0942 49.3405 63.6286 57.0655 55.6973 59.128C53.0442 59.8124 50.3067 60.028 47.5692 60.0187C42.3004 60.0093 36.1504 59.7468 31.2754 57.4405C28.7723 56.2499 27.4786 54.3655 27.4786 51.0655C27.4692 47.5687 28.8192 44.0062 30.4317 41.0062C31.1536 39.6655 31.8567 38.1468 32.7379 36.9843C33.8161 35.5499 35.3348 33.8812 36.8254 33.1499C39.4223 31.8468 38.7661 33.8343 39.4223 35.7655C39.4411 35.8312 39.4692 35.8968 39.5067 35.9624Z" fill="#40C0E7"/>
<path d="M53.2692 77.1281C53.1473 79.6219 51.1598 82.3594 48.666 83.5406C45.966 84.8344 43.2192 84.075 42.666 81.4781C42.0285 78.4875 44.5317 74.6812 48.0192 73.5469C51.1785 72.5062 53.4098 74.2969 53.2692 77.1281ZM19.5098 70.2937C20.0535 72.5625 19.1254 75.3375 17.6254 76.9031C16.1629 78.4312 14.1567 78.8437 12.816 77.6437C11.0348 76.0312 10.8942 72.0937 13.266 69.2719C15.7785 66.2437 18.7692 67.1719 19.5098 70.2937Z" fill="#FCC21B"/>
</svg>

<svg xmlns="http://www.w3.org/2000/svg" fill="none" aria-hidden="true" data-slot="icon" viewBox="0 0 120 120"><path fill="#E0E0E0" d="M113.409 41.335c-5.568-3.835-11.24-7.51-16.968-11.1-8.897-5.56-18.16-11.55-28.613-13.585-6.422-1.256-14.578-1.181-20.803 1.153-4.125 1.547-7.997 4.032-10.922 7.35-5.222 5.944-8.41 12.825-11.053 20.222C21.356 55.706 12.31 59.447 6.9 68.653c-2.41 4.125-3.619 11.344-3.206 16.144 1.847 21.197 33.75 21.741 47.644 19.369 7.162-1.219 14.672-4.847 18.122-7.06 7.8-5.015 13.687-11.953 13.687-11.953l33.234-32.718v-6.47c0-3.477-2.972-4.63-2.972-4.63"/><mask id="a" width="114" height="91" x="3" y="15" maskUnits="userSpaceOnUse" style="mask-type:luminance"><path fill="#fff" d="M113.409 41.335c-5.568-3.835-11.24-7.51-16.968-11.1-8.897-5.56-18.16-11.55-28.613-13.585-6.422-1.256-14.578-1.181-20.803 1.153-4.125 1.547-7.997 4.032-10.922 7.35-5.222 5.944-8.41 12.825-11.053 20.222C21.356 55.706 12.31 59.447 6.9 68.653c-2.41 4.125-3.619 11.344-3.206 16.144 1.847 21.197 33.75 21.741 47.644 19.369 7.162-1.219 14.672-4.847 18.122-7.06 7.8-5.015 13.687-11.953 13.687-11.953l33.234-32.718v-6.47c0-3.477-2.972-4.63-2.972-4.63"/></mask><g mask="url(#a)"><path fill="#40C0E7" d="M93 51.3c0 2.325-1.2 4.585-2.813 5.082l-1.95.59c-2.09.638-4.03-1.322-4.03-4.443v-12.16c0-3.122 1.94-4.94 4.03-4.162l1.95.73C91.8 37.548 93 39.9 93 42.226zm9-7.518c0-1.66-.741-3.253-1.735-3.544l-1.153-.356c-1.172-.347-2.222 1.003-2.222 3.037v7.94c0 2.035 1.041 3.432 2.222 3.141l1.153-.28c.985-.245 1.735-1.782 1.735-3.45zm5.39.703c0-1.219-.468-2.344-1.096-2.513l-.732-.187c-.75-.197-1.434.862-1.434 2.362v5.888c0 1.51.675 2.475 1.434 2.184l.732-.29c.628-.254 1.096-1.435 1.096-2.663zm3.179.337c0-.947-.282-1.79-.638-1.894l-.412-.112c-.422-.113-.788.703-.788 1.8v4.313c0 1.106.366 1.865.788 1.696l.412-.168c.356-.141.638-1.032.638-1.97zm2.006.206c0-.768-.178-1.443-.422-1.509l-.272-.075c-.262-.066-.487.581-.487 1.463V48.3c0 .872.225 1.5.487 1.397l.272-.112c.234-.094.422-.797.422-1.566zm1.687.188c0-.61-.122-1.144-.3-1.19l-.187-.057c-.188-.056-.347.46-.347 1.153v2.69c0 .685.159 1.182.347 1.098l.187-.085c.178-.075.3-.628.3-1.237z"/></g><mask id="b" width="114" height="91" x="3" y="15" maskUnits="userSpaceOnUse" style="mask-type:luminance"><path fill="#fff" d="M113.409 41.335c-5.568-3.835-11.24-7.51-16.968-11.1-8.897-5.56-18.16-11.55-28.613-13.585-6.422-1.256-14.578-1.181-20.803 1.153-4.125 1.547-7.997 4.032-10.922 7.35-5.222 5.944-8.41 12.825-11.053 20.222C21.356 55.706 12.31 59.447 6.9 68.653c-2.41 4.125-3.619 11.344-3.206 16.144 1.847 21.197 33.75 21.741 47.644 19.369 7.162-1.219 14.672-4.847 18.122-7.06 7.8-5.015 13.687-11.953 13.687-11.953l33.234-32.718v-6.47c0-3.477-2.972-4.63-2.972-4.63"/></mask><g mask="url(#b)"><path fill="#78A3AD" d="M4.266 83.86S7.78 91.256 19.06 94.397c11.278 3.14 27.543 4.247 37.162-.553 9.61-4.81 28.472-18.675 28.472-18.675l31.987-24.956v3.328L76.922 92.728s-12.197 12.76-26.625 12.76c-14.419 0-27.384.797-35.128-3.516C.572 93.835 4.266 83.86 4.266 83.86"/></g><mask id="c" width="114" height="91" x="3" y="15" maskUnits="userSpaceOnUse" style="mask-type:luminance"><path fill="#fff" d="M113.409 41.335c-5.568-3.835-11.24-7.51-16.968-11.1-8.897-5.56-18.16-11.55-28.613-13.585-6.422-1.256-14.578-1.181-20.803 1.153-4.125 1.547-7.997 4.032-10.922 7.35-5.222 5.944-8.41 12.825-11.053 20.222C21.356 55.706 12.31 59.447 6.9 68.653c-2.41 4.125-3.619 11.344-3.206 16.144 1.847 21.197 33.75 21.741 47.644 19.369 7.162-1.219 14.672-4.847 18.122-7.06 7.8-5.015 13.687-11.953 13.687-11.953l33.234-32.718v-6.47c0-3.477-2.972-4.63-2.972-4.63"/></mask><g mask="url(#c)"><path fill="#BDBDBD" d="M118.81 48.703c-.235-.112-.685-.13-.994-.056 0 0-.103.066-.281.197-.103.01-.206 0-.291.019-.206.056-21.187 15.59-40.265 30.787-18.47 14.71-35.85 18.853-56.363 13.444C6.713 89.438 4.22 82.378 3.882 78.844c.018-.14.037-.253.037-.29.028-.141-.028-.263-.075-.385-.019-.816.066-1.35.075-1.444a.703.703 0 0 0-.562-.825.697.697 0 0 0-.825.563c-.01.028-.16.872-.047 2.184-.206 2.025-.403 12.881 17.765 17.672 20.991 5.541 38.907 1.5 57.61-13.706 20.053-16.294 40.594-33.507 40.809-33.563.319-.084.385-.244.141-.347"/></g><mask id="d" width="114" height="91" x="3" y="15" maskUnits="userSpaceOnUse" style="mask-type:luminance"><path fill="#fff" d="M113.409 41.335c-5.568-3.835-11.24-7.51-16.968-11.1-8.897-5.56-18.16-11.55-28.613-13.585-6.422-1.256-14.578-1.181-20.803 1.153-4.125 1.547-7.997 4.032-10.922 7.35-5.222 5.944-8.41 12.825-11.053 20.222C21.356 55.706 12.31 59.447 6.9 68.653c-2.41 4.125-3.619 11.344-3.206 16.144 1.847 21.197 33.75 21.741 47.644 19.369 7.162-1.219 14.672-4.847 18.122-7.06 7.8-5.015 13.687-11.953 13.687-11.953l33.234-32.718v-6.47c0-3.477-2.972-4.63-2.972-4.63"/></mask><g mask="url(#d)"><path fill="#006CA2" d="M115.829 48.3s-11.082 5.232-19.763 8.56c-8.166 3.121-13.219 4.528-13.219 4.528l-1.743 10.987 34.725-22.987z"/></g><path fill="#40C0E7" d="M39.507 35.962c.965 1.885 4.18 1.82 5.925 1.903 3 .16 5.925.197 8.878.066 2.606-.103 4.631-.215 6.806-1.81 1.51-1.105 2.916-2.146 4.5-2.924 2.213-1.078 4.134 0 4.875 2.765.403 1.528.44 3.328.15 4.932-1.547 8.447-7.012 16.172-14.944 18.234-2.653.684-5.39.9-8.128.89-5.269-.009-11.419-.271-16.294-2.578-2.503-1.19-3.796-3.075-3.796-6.374-.01-3.497 1.34-7.06 2.953-10.06.722-1.34 1.425-2.86 2.306-4.022 1.078-1.434 2.597-3.103 4.087-3.834 2.597-1.303 1.941.684 2.597 2.616a1 1 0 0 0 .085.196"/><path fill="#FCC21B" d="M53.27 77.128c-.123 2.494-2.11 5.231-4.604 6.413-2.7 1.293-5.447.534-6-2.063-.637-2.99 1.866-6.797 5.353-7.931 3.16-1.04 5.39.75 5.25 3.581m-33.76-6.834c.543 2.269-.385 5.044-1.885 6.61-1.462 1.527-3.468 1.94-4.809.74-1.781-1.613-1.922-5.55.45-8.372 2.512-3.028 5.503-2.1 6.244 1.022"/></svg>
